X: 12
T: Drowsy Maggie
R: reel
M: 4/4
L: 1/8
K: Edor
~E2 BE dEBE | ~E2 BE AFDF | (3EGE BE dEBE | dDdB AFDF |
~E2 BE dEBE | ~E2 BE AFDF | GFEF GABc | dcdB A2 FA |
Be (3eee e2 eg | fd (3ddd d2 ef | g3 g g3 g | fa (3aaa afed |
d2 (3bbb bage | fa (3aaa afed | ~B3 B BAFA | ~d3 B AFDF ||


Tune 27	Setting 23223

